_includes/icons/color-archive-folder.svg

<svg fill="#666" height="50" viewBox="0 0 48 48" width="50" xmlns="http://www.w3.org/2000/svg"><path d="m40 12h-18l-4-4h-10c-2.199219 0-4 1.800781-4 4v8h40v-4c0-2.199219-1.800781-4-4-4z" fill="#ffa000"/><path d="m40 12h-32c-2.199219 0-4 1.800781-4 4v20c0 2.199219 1.800781 4 4 4h32c2.199219 0 4-1.800781 4-4v-20c0-2.199219-1.800781-4-4-4z" fill="#ffca28"/><g fill="#bf360c"><path d="m22 18h4v2h-4z"/><path d="m22 12h4v2h-4z"/><path d="m22 15h4v2h-4z"/><path d="m22 21h4v2h-4z"/><path d="m26 24h-4c0 3-2 6-2 8 0 2.199219 1.800781 4 4 4s4-1.800781 4-4c0-2-2-5-2-8zm-2 10c-1.101562 0-2-.898437-2-2 0-1.101562.898438-2 2-2 1.101563 0 2 .898438 2 2 0 1.101563-.898437 2-2 2z"/></g></svg>

<svg xmlns="http://www.w3.org/2000/svg" viewBox="0 0 48 48" width="50" height="50" fill="#666"><path d="M 40 12 L 22 12 L 18 8 L 8 8 C 5.800781 8 4 9.800781 4 12 L 4 20 L 44 20 L 44 16 C 44 13.800781 42.199219 12 40 12 Z" fill="#ffa000"/><path d="M 40 12 L 8 12 C 5.800781 12 4 13.800781 4 16 L 4 36 C 4 38.199219 5.800781 40 8 40 L 40 40 C 42.199219 40 44 38.199219 44 36 L 44 16 C 44 13.800781 42.199219 12 40 12 Z" fill="#ffca28"/><path d="M 22 18 L 26 18 L 26 20 L 22 20 Z" fill="#bf360c"/><path d="M 22 12 L 26 12 L 26 14 L 22 14 Z" fill="#bf360c"/><path d="M 22 15 L 26 15 L 26 17 L 22 17 Z" fill="#bf360c"/><path d="M 22 21 L 26 21 L 26 23 L 22 23 Z" fill="#bf360c"/><path d="M 26 24 L 22 24 C 22 27 20 30 20 32 C 20 34.199219 21.800781 36 24 36 C 26.199219 36 28 34.199219 28 32 C 28 30 26 27 26 24 Z M 24 34 C 22.898438 34 22 33.101563 22 32 C 22 30.898438 22.898438 30 24 30 C 25.101563 30 26 30.898438 26 32 C 26 33.101563 25.101563 34 24 34 Z" fill="#bf360c"/></svg>
